www/assets/icons/dry.svg

<svg xmlns="http://www.w3.org/2000/svg" width="24" height="24" viewBox="0 0 24 24" fill='currentColor'><path d="m16.15 4.36-.07-.07c-.57-.62-.82-1.41-.67-2.2l.09-.59h-1.89l-.06.43c-.2 1.36.27 2.71 1.3 3.72l.07.06c.57.62.82 1.41.67 2.2l-.11.59h1.91l.06-.43c.21-1.36-.27-2.71-1.3-3.71m4 0-.07-.07c-.57-.62-.82-1.41-.67-2.2l.09-.59h-1.89l-.06.43c-.2 1.36.27 2.71 1.3 3.72l.07.06c.57.62.82 1.41.67 2.2l-.11.59h1.91l.06-.43c.21-1.36-.27-2.71-1.3-3.71M9.62 4.5l-7.18 6.79c-.6.56-.94 1.35-.94 2.18v6.03c0 1.66 1.34 3 3 3h13.75a1.25 1.25 0 0 0 0-2.5H12.5v-1h7.75a1.25 1.25 0 0 0 0-2.5H12.5v-1h8.75a1.25 1.25 0 0 0 0-2.5H12.5v-1h6.75a1.25 1.25 0 0 0 0-2.5H9.36c.64-1.11 1.48-2.58 1.49-2.61a1.065 1.065 0 0 0-.12-1.23c-.01-.04-1.11-1.16-1.11-1.16"/></svg>

<svg width="24" height="24" viewBox="0 0 24 24" xmlns="http://www.w3.org/2000/svg" fill='currentColor'><path d="M16.15 4.36L16.08 4.29C15.51 3.67 15.26 2.88 15.41 2.09L15.5 1.5H13.61L13.55 1.93C13.35 3.29 13.82 4.64 14.85 5.65L14.92 5.71C15.49 6.33 15.74 7.12 15.59 7.91L15.48 8.5H17.39L17.45 8.07C17.66 6.71 17.18 5.36 16.15 4.36ZM20.15 4.36L20.08 4.29C19.51 3.67 19.26 2.88 19.41 2.09L19.5 1.5H17.61L17.55 1.93C17.35 3.29 17.82 4.64 18.85 5.65L18.92 5.71C19.49 6.33 19.74 7.12 19.59 7.91L19.48 8.5H21.39L21.45 8.07C21.66 6.71 21.18 5.36 20.15 4.36ZM9.62 4.5L2.44 11.29C1.84 11.85 1.5 12.64 1.5 13.47V19.5C1.5 21.16 2.84 22.5 4.5 22.5H18.25C18.94 22.5 19.5 21.94 19.5 21.25C19.5 20.56 18.94 20 18.25 20H12.5V19H20.25C20.94 19 21.5 18.44 21.5 17.75C21.5 17.06 20.94 16.5 20.25 16.5H12.5V15.5H21.25C21.94 15.5 22.5 14.94 22.5 14.25C22.5 13.56 21.94 13 21.25 13H12.5V12H19.25C19.94 12 20.5 11.44 20.5 10.75C20.5 10.06 19.94 9.5 19.25 9.5H9.36C10 8.39 10.84 6.92 10.85 6.89C10.94 6.73 10.99 6.56 10.99 6.36C10.99 6.1 10.9 5.86 10.73 5.66C10.72 5.62 9.62 4.5 9.62 4.5Z"/></svg>
